dist/assets/img/socials/1.svg

<svg width="24" height="24" viewBox="0 0 24 24" fill="none" xmlns="http://www.w3.org/2000/svg">
<g clip-path="url(#clip0_1624_9636)">
<path d="M20.4844 0H3.51562C1.57727 0 0 1.57727 0 3.51562V20.4844C0 22.4227 1.57727 24 3.51562 24H20.4844C22.4227 24 24 22.4227 24 20.4844V3.51562C24 1.57727 22.4227 0 20.4844 0ZM8.48438 19.0312H5.67188V9.1875H8.48438V19.0312ZM8.48438 7.78125H5.67188V4.96875H8.48438V7.78125ZM18.3281 19.0312H15.5156V13.4062C15.5156 12.631 14.8846 12 14.1094 12C13.3341 12 12.7031 12.631 12.7031 13.4062V19.0312H9.89062V9.1875H12.7031V9.71759C13.4399 9.48853 13.9186 9.1875 14.8125 9.1875C16.7199 9.18951 18.3281 10.9006 18.3281 12.9229V19.0312Z" fill="#16171A"/>
</g>
<defs>
<clipPath id="clip0_1624_9636">
<rect width="24" height="24" fill="white"/>
</clipPath>
</defs>
</svg>

<svg width="24" height="24" fill="none" xmlns="http://www.w3.org/2000/svg"><g clip-path="url(#clip0_1624_9636)"><path d="M20.484 0H3.516A3.52 3.52 0 000 3.516v16.968A3.52 3.52 0 003.516 24h16.968A3.52 3.52 0 0024 20.484V3.516A3.52 3.52 0 0020.484 0zm-12 19.031H5.672V9.188h2.812v9.843zm0-11.25H5.672V4.97h2.812v2.81zm9.844 11.25h-2.812v-5.625c0-.775-.631-1.406-1.407-1.406-.775 0-1.406.631-1.406 1.406v5.625H9.891V9.188h2.812v.53c.737-.23 1.216-.53 2.11-.53 1.907.002 3.515 1.713 3.515 3.735v6.108z" fill="#16171A"/></g><defs><clipPath id="clip0_1624_9636"><path fill="#fff" d="M0 0h24v24H0z"/></clipPath></defs></svg>
